src/images/icons/icons_separatly/plug.svg

<svg width="88" height="80" viewBox="0 0 88 80" fill="none" xmlns="http://www.w3.org/2000/svg">
<path d="M85.88 19.2821C84 18.2974 82.04 17.4769 80 16.7795V66.1333C75.44 64.4513 70.76 63.5897 66 63.5897C58.4 63.5897 50.88 65.8051 44 70.0718V20.4308C37.52 16.6154 30.04 14.359 22 14.359C14.84 14.359 8.08 16.1641 2.12 19.2821C0.8 19.9385 0 21.3744 0 22.8923V72.4513C0 74.8308 1.88 76.5128 4 76.5128C4.64 76.5128 5.28 76.3487 5.92 76.0205C10.76 73.4359 16.2 71.7949 22 71.7949C30.28 71.7949 37.92 75.159 44 80C50.08 75.159 57.72 71.7949 66 71.7949C71.8 71.7949 77.24 73.4359 82.08 76.0615C82.72 76.3898 83.36 76.5538 84 76.5538C86.08 76.5538 88 74.8718 88 72.4923V22.8923C88 21.3744 87.2 19.9385 85.88 19.2821ZM36 66.1333C31.44 64.4513 26.76 63.5897 22 63.5897C17.24 63.5897 12.56 64.4513 8 66.1333V25.4769C12.44 23.5487 17.12 22.5641 22 22.5641C26.8 22.5641 31.56 23.5897 36 25.518V66.1333ZM72 0L52 20.5128V59.4872L72 41.0256V0Z" fill="#4F2EE8"/>
</svg>

<svg xmlns="http://www.w3.org/2000/svg" width="88" height="80" fill="none"><path fill="#4F2EE8" d="M85.88 19.282A41.687 41.687 0 0 0 80 16.78v49.354c-4.56-1.682-9.24-2.543-14-2.543-7.6 0-15.12 2.215-22 6.482V20.43c-6.48-3.816-13.96-6.072-22-6.072-7.16 0-13.92 1.805-19.88 4.923C.8 19.94 0 21.374 0 22.892v49.56c0 2.379 1.88 4.06 4 4.06.64 0 1.28-.163 1.92-.492 4.84-2.584 10.28-4.225 16.08-4.225 8.28 0 15.92 3.364 22 8.205 6.08-4.841 13.72-8.205 22-8.205 5.8 0 11.24 1.64 16.08 4.266.64.329 1.28.493 1.92.493 2.08 0 4-1.682 4-4.062v-49.6c0-1.518-.8-2.953-2.12-3.61ZM36 66.133c-4.56-1.682-9.24-2.543-14-2.543s-9.44.861-14 2.543V25.477a34.84 34.84 0 0 1 14-2.913c4.8 0 9.56 1.026 14 2.954v40.615ZM72 0 52 20.513v38.974l20-18.461V0Z"/></svg>
